!!!ONR: No. 3
!! From Harold Courlander, "Haiti Singing"
!! Chapel Hill: University of North Carolina Press, 1939
!! Copyright University of North Carolina Press
!!!ENC: D. Huron
**kern
*clefG2
*k[]
*M2/4
=1-
8r
8e
8e
8e
=2
8a
4a
8g
=3
8c
8e
8a
8a
=4
[2a
=5
8a]
8e
8e
8e
=6
8g
4g
8e
=7
8c
8e
8g
8g
=8
[2g
=9
8g]
8c
8c
8c
=10
8A
4c
8c
=11
8d
8A
8c
8d
=12
[2d
=13
8d]
8c
8e
8g
=14
8e
4g
8g
=15
8a
8g
8c
8c
=16
2c
==
*-
